src/pos-icons/chess-knight.svg

<svg height="24" viewBox="0 0 24 24" width="24" xmlns="http://www.w3.org/2000/svg"><path d="m19 22h-14v-2h14zm-6-20c-1.25 0-2.42.62-3.11 1.66l-2.89 4.34 2 2 2.06-1.37c.44-.31 1.08-.19 1.39.27.02.03.05.06.05.1.3.59.19 1.3-.28 1.77l-4.8 4.8c-.55.56-.55 1.46.01 2.01.26.26.62.42.99.42h8.58v-12a4 4 0 0 0 -4-4z"/></svg>

<?xml version="1.0" encoding="UTF-8"?><!DOCTYPE svg PUBLIC "-//W3C//DTD SVG 1.1//EN" "http://www.w3.org/Graphics/SVG/1.1/DTD/svg11.dtd"><svg xmlns="http://www.w3.org/2000/svg" xmlns:xlink="http://www.w3.org/1999/xlink" version="1.1" id="mdi-chess-knight" width="24" height="24" viewBox="0 0 24 24"><path d="M19,22H5V20H19V22M13,2V2C11.75,2 10.58,2.62 9.89,3.66L7,8L9,10L11.06,8.63C11.5,8.32 12.14,8.44 12.45,8.9C12.47,8.93 12.5,8.96 12.5,9V9C12.8,9.59 12.69,10.3 12.22,10.77L7.42,15.57C6.87,16.13 6.87,17.03 7.43,17.58C7.69,17.84 8.05,18 8.42,18H17V6A4,4 0 0,0 13,2Z" /></svg>
